X:1
T:Jack the Horse Courser's Hornpipe,aka. SenH.112
T:Jack the Horse Courser's Hornpipe,aka. SenH.112
T:Untitled in MS. SenH.112
T:in Hand C
C:in Hand C
L:1/8
Q:1/2=100
M:2/2
K:C
V:1 treble 
V:1
 e2 a2 | g2 fe d2 ec | B2 AG cGce | dGBd cGce | dGBd c2 a2 | g2 fe d2 ec | B2 AG f2 ed | %7
 e2 dc B3 c | c4 :: g2 c'2 | b2 ag a2 bg | ^f2 ed bgbd' | ^fdfa gdgb | ^fdfa d2 c'2 | b2 ag a2 bg | %15
 ^f2 ed c2 BA | B2 cd B2 AG | G4 b2 e2 | ^d2 ^cB b2 e2 | ^d2 ^cB gBeg | c'eac ^fdfa | bBgb e2 c'2 | %22
 b2 ag ^f3 .e | e4 e2 a2 | g2 fe d2 ec | B2 AG eceg | BGBd cGce | BGBd c2 a2 | g2 fe d2 ec | %29
 B2 AG f2 ed | e2 dc B3 c | c4 :| %32

